X: 2
T: The Trip To Athlone
R: jig
M: 6/8
L: 1/8
K: Dmaj
ABA DED|dcA AGE|ABA ABc|dAB cde|ABA ~D3|dcA AGE|GFG Ade|1 fdc d2c:|2 fdc d2e|||:f2d edc|Add cde|fed edc|ABc def|~g3 age|dcA AGE|GFG Ade|1 fdc d2e:|2 fdc d2c||


Tune 1301	Setting 14614

